suite-common/icons/assets/icons/prices.svg

<svg xmlns="http://www.w3.org/2000/svg" xml:space="preserve" fill="none" viewBox="0 0 24 24">
  <path fill="#000" fill-rule="evenodd" d="M14.34 3.056a.9.9 0 0 0-.406.413c-.043.102-.054.526-.054 2.09V7.52h-2.362c-1.955 0-2.381.01-2.47.056a.9.9 0 0 0-.365.397c-.028.074-.043.784-.043 2.07V12H6.319c-2.005 0-2.342.008-2.47.062a.84.84 0 0 0-.383.318c-.033.058-.052.946-.066 3.22l-.02 3.14-.5.021c-.538.022-.681.066-.834.261-.29.368-.163.954.247 1.14.163.074.421.076 9.707.076s9.544-.002 9.707-.076c.253-.115.393-.35.393-.662 0-.203-.02-.276-.113-.416-.17-.258-.349-.322-.896-.323l-.45-.001-.01-7.61c-.01-6.994-.016-7.62-.077-7.73a.8.8 0 0 0-.403-.358c-.129-.054-.506-.062-2.92-.06-2.208.001-2.795.012-2.891.054m4.78 8.564v7.141l-1.87-.011-1.87-.01-.01-7.08c-.006-3.894-.002-7.102.008-7.13.015-.039.429-.05 1.881-.05h1.861zm-5.24 2.26v4.88h-3.76V9h3.76zm-5.25 2.25.011 2.63H4.88v-5.281l1.87.011 1.87.01z"/>
</svg>

<svg xmlns="http://www.w3.org/2000/svg" xml:space="preserve" fill="none" viewBox="0 0 24 24"><path d="M14.340 3.056 C 14.182 3.126,14.002 3.309,13.934 3.469 C 13.891 3.571,13.880 3.995,13.880 5.559 L 13.880 7.520 11.518 7.520 C 9.563 7.520,9.137 7.530,9.048 7.576 C 8.903 7.652,8.735 7.835,8.683 7.973 C 8.655 8.047,8.640 8.757,8.640 10.043 L 8.640 12.000 6.319 12.000 C 4.314 12.000,3.977 12.008,3.849 12.062 C 3.689 12.129,3.540 12.253,3.466 12.380 C 3.433 12.438,3.414 13.326,3.400 15.600 L 3.380 18.740 2.880 18.761 C 2.342 18.783,2.199 18.827,2.046 19.022 C 1.756 19.390,1.883 19.976,2.293 20.162 C 2.456 20.236,2.714 20.238,12.000 20.238 C 21.286 20.238,21.544 20.236,21.707 20.162 C 21.960 20.047,22.100 19.812,22.100 19.500 C 22.100 19.297,22.080 19.224,21.987 19.084 C 21.817 18.826,21.638 18.762,21.091 18.761 L 20.641 18.760 20.631 11.150 C 20.621 4.156,20.615 3.530,20.554 3.420 C 20.464 3.257,20.328 3.136,20.151 3.062 C 20.022 3.008,19.645 3.000,17.231 3.002 C 15.023 3.003,14.436 3.014,14.340 3.056 M19.120 11.620 L 19.120 18.761 17.250 18.750 L 15.380 18.740 15.370 11.660 C 15.364 7.766,15.368 4.558,15.378 4.530 C 15.393 4.491,15.807 4.480,17.259 4.480 L 19.120 4.480 19.120 11.620 M13.880 13.880 L 13.880 18.760 12.000 18.760 L 10.120 18.760 10.120 13.880 L 10.120 9.000 12.000 9.000 L 13.880 9.000 13.880 13.880 M8.630 16.130 L 8.641 18.760 6.760 18.760 L 4.880 18.760 4.880 16.120 L 4.880 13.479 6.750 13.490 L 8.620 13.500 8.630 16.130 " stroke="none" fill-rule="evenodd" fill="black"></path></svg>
